X:281
T: Die Mllerin (41b), S. 134
N: T0170
O: Luxemburg
S: Singendes Volk, Esch-Alzette 1937 posth.]
N: Heffingen, hhh Georg Olinger, 10.3.1933
R: Liebeslieder]
M: 2/4
L: 1/16
K: G
D2 | G2G2G2AA | B2B2B2
B2 | A2c2B2A2 | G4z2
B2 | d2B2d2B2 | c2e2e2
dB | c2A2c2A2 | c2e2d2
c2 | B3AB2c2 | d4
e4 | d3ed2c2 | B4z2

